X: 23
T:Ragged Sailor,The. BF11.23
M:4/4
Q:200
C:Browne A hand
S:MS11,c1800.,Browne Coll.,Lakes
R:Reel
O:England
A:Lakes
Z:vmp.Chris Partington
K:G
B|GBAc Bdc2|cAFA cAAB|GBAc Bdg2|gedc BGG:|!
|:B/c/|dcBg dBc2|cBA=f cAB2|GBAc Bdg2|gedc BGG2:|]
